HTML/img/RGB Mazes/frgbmaze0.svg

<?xml version="1.0" encoding="UTF-8" standalone="no"?>
<!-- Created with Inkscape (http://www.inkscape.org/) -->

<svg
   xmlns:dc="http://purl.org/dc/elements/1.1/"
   xmlns:cc="http://creativecommons.org/ns#"
   xmlns:rdf="http://www.w3.org/1999/02/22-rdf-syntax-ns#"
   xmlns:svg="http://www.w3.org/2000/svg"
   xmlns="http://www.w3.org/2000/svg"
   xmlns:sodipodi="http://sodipodi.sourceforge.net/DTD/sodipodi-0.dtd"
   xmlns:inkscape="http://www.inkscape.org/namespaces/inkscape"
   width="76.276184mm"
   height="64.071426mm"
   viewBox="0 0 76.276184 64.071426"
   version="1.1"
   id="svg1044"
   inkscape:version="0.92.4 (5da689c313, 2019-01-14)"
   sodipodi:docname="frgbmaze0.svg">
  <defs
     id="defs1038" />
  <sodipodi:namedview
     id="base"
     pagecolor="#ffffff"
     bordercolor="#666666"
     borderopacity="1.0"
     inkscape:pageopacity="0.0"
     inkscape:pageshadow="2"
     inkscape:zoom="0.35"
     inkscape:cx="-211.36334"
     inkscape:cy="95.365568"
     inkscape:document-units="mm"
     inkscape:current-layer="layer1"
     showgrid="false"
     inkscape:snap-global="false"
     inkscape:window-width="1366"
     inkscape:window-height="705"
     inkscape:window-x="-8"
     inkscape:window-y="-8"
     inkscape:window-maximized="1" />
  <metadata
     id="metadata1041">
    <rdf:RDF>
      <cc:Work
         rdf:about="">
        <dc:format>image/svg+xml</dc:format>
        <dc:type
           rdf:resource="http://purl.org/dc/dcmitype/StillImage" />
        <dc:title></dc:title>
      </cc:Work>
    </rdf:RDF>
  </metadata>
  <g
     inkscape:label="Layer 1"
     inkscape:groupmode="layer"
     id="layer1"
     transform="translate(-32.86667,-109.99404)">
    <g
       id="g1635">
      <g
         transform="matrix(0.84212171,0,0,0.84212171,19.176186,92.449843)"
         id="g942">
        <rect
           style="fill:#ffffff;fill-opacity:1;stroke:#000000;stroke-width:2;stroke-miterlimit:4;stroke-dasharray:none;stroke-opacity:1"
           id="rect821"
           width="74.083336"
           height="74.083336"
           x="31.75"
           y="21.833332"
           ry="2.8822121e-06" />
        <path
           style="fill:none;stroke:#000000;stroke-width:2;stroke-linecap:butt;stroke-linejoin:miter;stroke-miterlimit:4;stroke-dasharray:none;stroke-opacity:1"
           d="M 63.499999,21.833333 V 43.000001 H 52.916666 V 53.583334 H 42.333333 V 43.000001 H 31.75"
           id="path823"
           inkscape:connector-curvature="0" />
        <path
           style="fill:none;stroke:#000000;stroke-width:2;stroke-linecap:butt;stroke-linejoin:miter;stroke-miterlimit:4;stroke-dasharray:none;stroke-opacity:1"
           d="M 52.916666,32.416668 H 42.333333 v 10.583333"
           id="path825"
           inkscape:connector-curvature="0" />
        <path
           style="fill:none;stroke:#000000;stroke-width:2;stroke-linecap:butt;stroke-linejoin:miter;stroke-miterlimit:4;stroke-dasharray:none;stroke-opacity:1"
           d="M 31.75,64.166667 H 52.916666 V 85.333334 H 63.499999 V 74.75"
           id="path837"
           inkscape:connector-curvature="0" />
        <path
           style="fill:none;stroke:#000000;stroke-width:2;stroke-linecap:butt;stroke-linejoin:miter;stroke-miterlimit:4;stroke-dasharray:none;stroke-opacity:1"
           d="M 52.916666,53.583334 H 74.083332 V 64.166667 H 63.499999 V 74.75"
           id="path841"
           inkscape:connector-curvature="0" />
        <path
           style="fill:none;stroke:#000000;stroke-width:2;stroke-linecap:butt;stroke-linejoin:miter;stroke-miterlimit:4;stroke-dasharray:none;stroke-opacity:1"
           d="M 31.75,74.75 H 42.333333 V 85.333334"
           id="path843"
           inkscape:connector-curvature="0" />
        <path
           style="fill:none;stroke:#000000;stroke-width:2;stroke-linecap:butt;stroke-linejoin:miter;stroke-miterlimit:4;stroke-dasharray:none;stroke-opacity:1"
           d="M 63.499999,85.333334 V 95.916667"
           id="path845"
           inkscape:connector-curvature="0" />
        <path
           style="fill:none;stroke:#000000;stroke-width:2;stroke-linecap:butt;stroke-linejoin:miter;stroke-miterlimit:4;stroke-dasharray:none;stroke-opacity:1"
           d="M 74.083332,64.166667 V 85.333334 H 84.666666 V 64.166667 h 10.583333 v 31.75"
           id="path847"
           inkscape:connector-curvature="0" />
        <path
           style="fill:none;stroke:#000000;stroke-width:2;stroke-linecap:butt;stroke-linejoin:miter;stroke-miterlimit:4;stroke-dasharray:none;stroke-opacity:1"
           d="M 84.666666,64.166667 V 53.583334 H 95.249999 V 32.416668 h 10.583331"
           id="path849"
           inkscape:connector-curvature="0" />
        <path
           style="fill:none;stroke:#000000;stroke-width:2;stroke-linecap:butt;stroke-linejoin:miter;stroke-miterlimit:4;stroke-dasharray:none;stroke-opacity:1"
           d="M 63.499999,32.416668 H 74.083332 V 43.000001 H 84.666666 V 53.583334"
           id="path851"
           inkscape:connector-curvature="0" />
        <path
           style="fill:none;stroke:#000000;stroke-width:2;stroke-linecap:butt;stroke-linejoin:miter;stroke-miterlimit:4;stroke-dasharray:none;stroke-opacity:1"
           d="M 84.666666,32.416668 H 95.249999"
           id="path853"
           inkscape:connector-curvature="0" />
      </g>
      <path
         d="m 39.91429,114.81547 a 3.0238097,3.0238097 0 0 1 -3.016369,3.0238 3.0238097,3.0238097 0 0 1 -3.031214,-3.00892 3.0238097,3.0238097 0 0 1 3.001449,-3.03861 3.0238097,3.0238097 0 0 1 3.045987,2.99396"
         sodipodi:open="true"
         sodipodi:end="6.2733417"
         sodipodi:start="0"
         sodipodi:ry="3.0238097"
         sodipodi:rx="3.0238097"
         sodipodi:cy="114.81547"
         sodipodi:cx="36.89048"
         sodipodi:type="arc"
         id="path1620"
         style="fill:#ffffff;fill-opacity:1;stroke:#000000;stroke-width:2;stroke-miterlimit:4;stroke-dasharray:none;stroke-opacity:1" />
    </g>
  </g>
</svg>

<svg xmlns="http://www.w3.org/2000/svg" width="288.288" height="242.16" viewBox="0 0 76.276 64.071"><g stroke="#000" stroke-width="2"><g transform="translate(-13.69 -17.544) scale(.84212)"><rect width="74.083" height="74.083" x="31.75" y="21.833" ry="0" fill="#fff"/><path d="M63.5 21.833V43H52.917v10.583H42.333V43H31.75" fill="none"/><path d="M52.917 32.417H42.333V43M31.75 64.167h21.167v21.166H63.5V74.75M52.917 53.583h21.166v10.584H63.5V74.75M31.75 74.75h10.583v10.583M63.5 85.333v10.584M74.083 64.167v21.166h10.584V64.167H95.25v31.75M84.667 64.167V53.583H95.25V32.417h10.583M63.5 32.417h10.583V43h10.584v10.583M84.667 32.417H95.25" fill="none"/></g><path d="M7.048 4.821A3.024 3.024 0 014.03 7.845 3.024 3.024 0 011 4.836a3.024 3.024 0 013.001-3.038 3.024 3.024 0 013.046 2.994" fill="#fff"/></g></svg>
